X: 35025
T: Rollicking Boys Of Tandragee, The
R: jig
M: 6/8
K: Eminor
d|:B3 E/F/GE|BAB d2B|ABA D3|AFD FGA
BAB E3|BAB def|edB AF/G/A|BEE E2A:|
|:B2e efe|def afd|e2d dB/c/d|Bcd fdA|
B2e e3|def afd|edB AF/G/A|BEE E2A:|

